X: 82
T:Drummond Castle
% Nottingham Music Database
S:AA, via EF
M:6/8
K:Am
P:A
e|"Am"ABA a3|"Am"age "G"g3|"C"c2c edc|"G"Bdg dBG|
"Am"ABA a3|"Am"age "G"g3|"C"e/2g3/2e "G"deg|"Em"edB "Am"A2:|
P:B
B|"C"c2c cde|"G7"d2d ded|"C"c2c edc|"G"Bdg dBG|
"C"c2c edc|"G"deg "Am"a2g|"C"e/2g3/2e "G"deg|"Em"edB "Am"A2:|<end>
<start>
